X:61
T: ICH STAND AUF HOHEN BERGEN
N: Z0062
O: Europa, Mitteleuropa, Deutschland
R: Sagen - Lied, Romanze
M: 4/4
L: 1/8
K: A
=cd | e3d=c3B | A2=cde2z
e | =f2f2ddd2 | e2z3
ee=f | =g2e2d2=cd | e2z3
dde | =f2d2=c2Bc | d2z4
e2 | a2=c2decB | A2z4
e2 | a2=c2decB | A4z2

@@@ Tune index: 9819
